img/svg/16/os/centos.svg

<svg xmlns="http://www.w3.org/2000/svg" viewBox="0 0 16 16" enable-background="new 0 0 16 16"><path d="M13 3v2.929l-.757-.757-1.829 1.828h-1.414v-1.414l1.828-1.828-.757-.758h2.929zm-6 6h-1.414l-1.828 1.828-.758-.757v2.929h2.929l-.757-.757 1.828-1.829v-1.414zm5.243 1.828l-1.829-1.828h-1.414v1.414l1.828 1.828-.757.758h2.929v-2.929l-.757.757zm-7.071-7.071l.757-.757h-2.929v2.929l.757-.757 1.829 1.828h1.414v-1.414l-1.828-1.829zm4.949 0l-2.121-2.121-2.121 2.121 2.121 2.122 2.121-2.122zm0 8.486l-2.121-2.122-2.121 2.121 2.121 2.122 2.121-2.121zm2.122-2.122l2.121-2.121-2.121-2.121-2.122 2.121 2.122 2.121zm-8.486 0l2.122-2.121-2.122-2.121-2.121 2.121 2.121 2.121z" fill="#ccc"/></svg>

<svg xmlns="http://www.w3.org/2000/svg" viewBox="0 0 16 16"><path fill="#ccc" d="M13 3v2.929l-.757-.757L10.414 7H9V5.586l1.828-1.828L10.071 3H13zM7 9H5.586l-1.828 1.828L3 10.071V13h2.929l-.757-.757L7 10.414V9zm5.243 1.828L10.414 9H9v1.414l1.828 1.828-.757.758H13v-2.929l-.757.757zM5.172 3.757 5.929 3H3v2.929l.757-.757L5.586 7H7V5.586L5.172 3.757zm4.949 0L8 1.636 5.879 3.757 8 5.879l2.121-2.122zm0 8.486L8 10.121l-2.121 2.121L8 14.364l2.121-2.121zm2.122-2.122L14.364 8l-2.121-2.121L10.121 8l2.122 2.121zm-8.486 0L5.879 8 3.757 5.879 1.636 8l2.121 2.121z"/></svg>
